X:114
T:Scotch Cap
T:Edinburgh Castle
M:6/8
L:1/8
K:F
A,2 | "Dm" D2 D d2 d | "Am" e2 d c2 A | "G" =B2 d B2 A | "G" =B3 "Dm" d3 |
"Dm" D2 D d2 d | "Am" e2 d c2 A |"G" =B2 c B2 A | "G" =B3 "Dm" d2 |]
|: d/e/ | "Dm" f2 A A2 d/e/ | "Dm" f2 A A2 d/e/ | "Dm" f2 A A2 F | "Dm" A3 d3 |
"G" =B2 B "Dm" A2 F | "G" G2 G d2 d | "G" =B2 B "Dm" A F2 | "Am" E3 "Dm" D2 :|
%
